X:1
T:Salut d'amour
T:Salut d'amour
T:Edward Elgar
T:Love's Greeting Op.12
C:Edward Elgar
%%score { ( 1 3 6 ) | ( 2 4 5 ) }
L:1/8
Q:1/4=72
M:2/4
K:E
V:1 treble nm="Piano" snm="Pno."
V:3 treble 
V:6 treble 
V:2 bass 
V:4 bass 
V:5 bass 
V:1
!mf!"^Andantino" z!>(! [B,EG]2 [B,EG] | z [B,EG]2 [B,EG]!>)! |!p! g2 Bg | fe d!<(!e | a2 a2!<)! | %5
!>(! a2!>)! B z | g2 ^B!<(!g | fe de!<)! |[Q:1/4=70] f2 f2 |!>(! f3 ^^f!>)! | %10
!pp![Q:1/4=72] g2!<(! Bg | fe de |[Q:1/4=74] [cc']2 [cc']2!<)! | %13
[Q:1/4=72]!>(! [cac']2[Q:1/4=70] [Bgb][Afa]!>)! |!p! [Geg]2 [Fcf][Ae] |[Q:1/4=68]{/e} c2 d2 | %16
 e3[Q:1/4=66] z |[Q:1/4=63] [C=G^A]2[Q:1/4=58]!>(! [B,FB]2!>)! | %18
!p!"_a tempo"[Q:1/4=63] g2[Q:1/4=66][Q:1/4=72] Bg | fe d!<(!e |[Q:1/4=74] a2 a2!<)! | %21
!>(! a2[Q:1/4=70]!>)! B z |[Q:1/4=72] g2 ^B!<(!g | fe de!<)! | f2 f2 | %25
[Q:1/4=68]!>(! f3[Q:1/4=70] ^^f!>)! |!pp![Q:1/4=72] g2!<(! Bg | fe de | %28
[Q:1/4=74] [cc']2 [cc']2!<)! |[Q:1/4=72]!>(! [cac']2 [Bgb][Afa]!>)! | %30
!p![Q:1/4=70] [Geg]2 [Fcf][Ae] |[Q:1/4=68]!>(!{/e} c2 d2!>)! | e4-[Q:1/4=66] | %33
[Q:1/4=63]!<(! e4!<)! ||[K:G]!pp![Q:1/4=66] g2[Q:1/4=72] fe | c2 de | f2 ed | B2 cd | %38
 e2!<(! [Ff][Gg] | [Aa]2 [Bb][cc'] |[Q:1/4=68] [dd']2!<)![Q:1/4=63] [ff'][ee'] | %41
[Q:1/4=70] [dd']3 [cc'] |!mf![Q:1/4=72] [Bb]2 [Aa][Gg] |"_cresc." [Ee]2 [Ff][Gg] | %44
[Q:1/4=74] [Bb]!>(![Aa] [Gg][Ff] |[Q:1/4=72] [^D^d]2!>)![Q:1/4=68]!<(! [Ee][Ff]!<)! | %46
"_dim." [Gg]2 [Aa]"_rit."[Q:1/4=63][Bb] | %47
!pp![Q:1/4=60] [cc']2[Q:1/4=54] !fermata![gg']>[Q:1/4=48][ff'] || %48
[K:E]!p![Q:1/4=58]"_a tempo"{/e'} e2[Q:1/4=68][Q:1/4=72] dc | B2 ^AB | c2 AG | F2 ^EF | %52
[Q:1/4=74] A2 ^EF |[Q:1/4=72] A2 ^EF |[Q:1/4=70] A2!<(! ^EF!<)! | %55
[Q:1/4=63]"_rit." z[Q:1/4=58]!>(! c'[Q:1/4=54] ba!>)! | %56
!p!"^Tempo I"[Q:1/4=58] g2[Q:1/4=63][Q:1/4=72] Bg | fe d!<(!e | a2[Q:1/4=68] a2!<)! | %59
[Q:1/4=63]!>(! a2!>)! B z |[Q:1/4=72] g2 ^B!<(!g |[Q:1/4=74] fe de!<)! | f2[Q:1/4=72] f2 | %63
[Q:1/4=68] f3[Q:1/4=63] ^^f |!p![Q:1/4=72] g2 Bg |!<(! fe de |[Q:1/4=74] [cc']2!<)! [cc']2 | %67
!>(! [cc']2[Q:1/4=72] [dd'][ee']!>)! |!pp! [aa'] [ff']2 [ee'] | %69
 [=d=d'][=c=c'][Q:1/4=70]!<(! [Ff]>[Q:1/4=72][^c^c'] | [cc']!<)!"_cresc." [Bb]2 [Gg] | %71
 [Ff][Ee][Q:1/4=70]!<(! [B,B]>[Q:1/4=72][=C=c]!<)! |!ff! [Aa] [Ff]2 [Ee] | %73
!>(! [=D=d][=C=c]!>)!!f!!<(! F>[^C^c]!<)! |!ff! c2 BG | F!p!E[K:bass] B,>^B, | CG, A,B, | %77
[Q:1/4=74]!<(! C[K:treble]A GF!<)! |"_cresc." E^B, CD |[Q:1/4=70]!ff!"_rit." E[ee'] [dd'][cc'] | %80
 [Bb]d [Ff][Ee] |!<(! [Dd][Bb]!<)!!>(! [Bb]>[Gg]!>)! |!p!"_rit."[Q:1/4=68] [Gg]2 [Ff]2 | %83
!pp!!>(! [Cc]2[Q:1/4=63] [Dd]2!>)! |[Q:1/4=72]!pp! [GBg]2 Bg | fe de |!<(! a2 a2!<)! | %87
!>(! a2 gf!>)! |!pp! e z B,G |!<(! FE DE!<)! |[Q:1/4=70]"_rit."!>(! A2 A2 | %91
[Q:1/4=68]!p! A2 GF!>)! |[Q:1/4=72] E [B,E]2 [B,E] | [EG] [EG]2!>(! [GB] | [Be]2!>)! z2 | %95
!pp! [GBeg]2 z2 |"_dim." [E,G,E]4 |!>(! [E,G,E]4 | [E,G,E]4- | !fermata![E,G,E]2!>)! z2 |] %100
V:2
 E,,2- E,, z | E,,2- E,, z |!pp! z [E,B,E]2 [E,B,E] | z [G,B,]2 [G,B,] | z [F,CE]2 [F,CE] | %5
 z [F,B,D]2 [B,D] | z [G,B,]2 [G,^B,] | z [G,CE]2 [G,CE] | z [F,B,E]2 [F,^A,E] | z [B,D]2 [B,D] | %10
 z [E,B,E]2 [E,B,E] | z [G,B,]2 [G,B,] | z [CE] z [C^E] | z A GF | z [G,B,] [A,C][CE] | z B,2 B,- | %16
 B,2 z2 | z4 |!pp! z [E,B,E]2 [E,B,E] | z [G,B,]2 [G,B,] | z [F,CE]2 [F,CE] | z [F,B,D]2 [B,D] | %22
 z [G,B,]2 [G,^B,] | z [G,CE]2 [G,CE] | z [F,B,E]2 [F,^A,E] | z [B,D]2 [B,D] | z [E,B,E]2 [E,B,E] | %27
 z [G,B,]2 [G,B,] | z [CE] z [C^E] | z A GF | z [G,B,] [A,C][CE] | z B,2 B,- | B, z B,2 | %33
 ^B,2 ^C2 ||[K:G] D [B,D]2 [B,D] | [A,E] [A,E]2 [A,E] | [A,D] [A,D]2 [A,D] | [G,D] [G,D]2 [G,D] | %38
 [G,C] [G,C]2 [G,CE] | [CE] [CD]2 [CDA] | A G2 G | G F2 [F,A,E] | z [D,G,B,D]2 [D,G,B,D] | %43
 z [G,B,]2 [E,B,E] | z [F,CE]2 [A,CE] | z [F,A,B,]2 [A,B,] | z [G,B,E]2 [G,B,E] | %47
 z [G,CE]2 !fermata![A,B,^D] ||[K:E] [B,,-G,]4 | [B,,A,]4 | [B,,-G,]4 | [B,,A,]4 | %52
 z [=C,F,]2 [C,F,] | z F,2 F, | z [C,F,]2 [C,F,] | z [A,B,F]2 [A,B,D] |!pp! z [E,B,E]2 [E,B,E] | %57
 z [G,B,]2 [G,B,] | z [F,CE]2 [F,=CE] | z [F,B,D]2 [B,D] | z [G,B,]2 [G,^B,] | z [G,CE]2 [G,E] | %62
 z [^A,E] F,E | DC B,A, | z [E,B,E]2 [E,B,E] | z [G,B,]2 [G,B,] | z [CE] z [C^E] | z [CFA]2 z | %68
 .[F,=CE].[F,CE] .[F,CE].[F,CE] | .[F,=CE].[F,CE] [B,D]A, | [G,E].[G,B,E] .[G,B,E].[G,B,E] | %71
 .[G,B,].[G,B,] [G,,,G,,]2 | z .[=C,A,=C] .[C,A,C].[C,A,C] | %73
 .[A,,E,A,].[A,,E,A,] .[B,,,B,,].[A,,,A,,] | [G,,,G,,-]4 | [C,,G,,]2 .[G,,,G,,] z | %76
 .[A,,,A,,] z .[G,,,G,,] z | .[F,,,F,,]C, F,A, | [C,,C,] z [B,,,B,,] z | [^A,,,^A,,]2 [^A,E=G]2 | %80
 [FA]2 B,2 | A,2 G,>B, | A,4 | B,,,4 | z [E,B,]2 [E,B,E] | z [G,B,]2 [G,B,] | z [A,^B,]2 [A,C] | %87
 z [A,^^C]2 [A,D] | z [B,,E,]2 [B,,E,] | z E,2 E, | z [F,A,]2 [F,A,] | z [F,B,]2 [A,B,] | %92
 E,, G,2 G, | B, B,2 E | G2 z2 | [E,B,E]2 z2 | E,,2 B,,2- | [E,,B,,]2 B,,2 | [E,,,B,,]4- | %99
 !fermata![E,,,B,,]2 z2 |] %100
V:3
 x4 | x4 | z G2 [GB] | z [EB]2 [EB] | z [Ac]2 [Ac] | z [Ad] z [FA] | z [GB] z [G^B] | %7
 z [Gc]2 [Gc] | z [FBe]2 [F^Ae] | z [Bd]2 [Ad] | z G2 [GB] | z [EB]2 [EB] | z [ea]2 [^eb] | x4 | %14
 x4 | A2 [GB][FA] | [EG]2"_rit."!<(! [CEA]2 | x2!<)! x2 | z G2 [GB] | z [EB]2 [EB] | z [Ac]2 [Ac] | %21
 z [Ad] z [FA] | z [GB] z [G^B] | z [Gc]2 [Gc] | z [FBe]2 [F^Ae] | z [Bd]2 [Ad] | z G2 [GB] | %27
 z [EB]2 [EB] | z [ea]2 [^eb] | x4 | x4 | A2 [GB][FA] | [EG] z"_rit." [EG]2 | [FA]2 [^^F^A]2 || %34
[K:G] [GB]"_a tempo" G2 G | G G2 G | [Fc] [Fc]2 F | F F2 F | [EB] [EA]2 x | x4 | x4 | x4 | x4 | %43
 x4 | e2 x2 | x4 | x4 | x4 ||[K:E] z [EG]2 [EG] | z [DF]2 [DF] | z [CE]2 [CE]- | %51
 [CE] [B,D]2 [B,D] | z [A,E]2 [A,=E] | z [A,B,D]2 [A,B,D] | z [A,C]2 [A,C] | e2 dc | z G2 [GB] | %57
 z [EB]2 [EB] | z [Ac]2 [A=c] | z [AB] z [FA] | z [GB] z [G^B] | z [Gc]2 [Gc] | z2 Fe | %63
 dc!>(! BA!>)! | z G2 [GB] | z [EB]2 [EB] | z [ea]2 [^eb] | x [fa] z x | x4 | x2 ^d2 | e3 z | x4 | %72
 =c3 z | z2 ^D2 | [CE]!>(![CE] [B,E][B,E] | [G,C]2!>)![K:bass] z E, | z [C,E,] z [C,^E,] | %77
 z[K:treble] [A,C] [A,C][A,C] | z [E,G,] z [E,G,] | [E,=G,]2 =g2 | f2 B2 | A2 =d2 | c4 | A4 | %84
 x3 [GB] | z [EB]2 [EB] | z [A^B]2 [Ac] | z [A^^c]2 [Ad] | G2 z2 | z B,2 B, | z [^B,^B] z [Cc] | %91
 z [^^C^^c]2 [Dd] | x4 | x4 | x4 | x4 | x4 | x4 | x4 | x4 |] %100
V:4
 x4 | x4 | E,,4 | G,,4 | F,,4 | B,,4 | [E,,E,]2 [D,,D,]2 |{/C,,} C,4 | F,,4 | B,,4 | E,,4 | G,,4 | %12
 [A,,A,]2 [G,,G,]2 | x C2 C | B,,,2 z2 | B,,, z B,, z | E,, E,2 E,- | E,E, D,B,, | E,,4 | G,,4 | %20
 F,,4 | B,,4 | [E,,E,]2 [D,,D,]2 |{/C,,} C,4 | F,,4 | B,,4 | E,,4 | G,,4 | [A,,A,]2 [G,,G,]2 | %29
 x C2 C | B,,,2 z2 | B,,, z B,, z | E,, E,2 E,- | E, E,2 E, ||[K:G] D,4- | D,4 | D,4- | D,4 | %38
 D,4- | [D,F,]2 !>!D,,2 | [B,D]2 [_B,^C]2 | [A,=C]2 [D,,D,]2 | [G,,,G,,]4 | [G,,,G,,]4 | %44
 [F,,,F,,]4 | [B,,,B,,]4 | [B,,,B,,]4 | !fermata![B,,,B,,]4 ||[K:E] x4 | x4 | x4 | x4 | F,,4 | %53
 B,,4 | F,,4 | B,,,4 | E,,4 | G,,4 | F,,4 | B,,4 | [E,,E,]2 [D,,D,]2 |{/C,,} C,4 | F,,4 | B,,2 z2 | %64
 E,,4 | G,,4 | [A,,A,]2 [G,,G,]2 | [F,,F,]2- [F,,F,] z | x4 | x4 | x4 | x4 | [F,,,F,,]4- | %73
 [F,,,F,,]2 x2 | x4 | x4 | x4 | x4 | x4 | x4 | A,A,, G,,2 | F,,2 ^E,,2 | F,,4 | x4 | E,,4 | G,,4 | %86
 F,,4 | B,,4 | E,,4 | G,,4 | F,,4 | B,,,4 | x4 | x4 | x4 | x4 | x4 | x4 | x4 | x4 |] %100
V:5
 x4 | x4 | x4 | x4 | x4 | x4 | x4 | x4 | x4 | x4 | x4 | x4 | x4 | [F,,F,]2 z2 | x4 | x4 | x4 | x4 | %18
 x4 | x4 | x4 | x4 | x4 | x4 | x4 | x4 | x4 | x4 | x4 | [F,,F,]2 z2 | x4 | x4 | x4 | x4 || %34
[K:G] x4 | x4 | x4 | x4 | x4 | x4 | x4 | x4 | x4 | x4 | x4 | x4 | x4 | x4 ||[K:E] x4 | x4 | x4 | %51
 x4 | x4 | x4 | x4 | x4 | x4 | x4 | x4 | x4 | x4 | x4 | x4 | x4 | x4 | x4 | x4 | x4 | x4 | x4 | %70
 x4 | x4 | x4 | x4 | x4 | x4 | x4 | x4 | x4 | x4 | x4 | x4 | x4 | x4 | x4 | x4 | x4 | x4 | x4 | %89
 x4 | x4 | x4 | x4 | x4 | x4 | x4 | x4 | x4 | x4 | x4 |] %100
V:6
 x4 | x4 | x4 | x4 | x4 | x4 | x4 | x4 | x4 | x4 | x4 | x4 | x4 | x4 | x4 | x4 | x4 | x4 | x4 | %19
 x4 | x4 | x4 | x4 | x4 | x4 | x4 | x4 | x4 | x4 | x4 | x4 | x4 | x4 | x4 ||[K:G] x4 | x4 | x4 | %37
 x4 | x4 | x4 | x4 | x4 | x4 | x4 | x4 | x4 | x4 | x4 ||[K:E] x4 | x4 | x4 | x4 | x4 | x4 | x4 | %55
 x4 | x4 | x4 | x4 | x4 | x4 | x4 | x4 | x4 | x4 | x4 | x4 | x4 | x4 | x4 | x4 | x4 | x4 | x4 | %74
 x4 | x2[K:bass] x2 | x4 | x[K:treble] x3 | x4 | x4 | x4 | x4 | x4 | x g x f | x4 | x4 | x4 | x4 | %88
 x4 | x4 | x4 | x4 | x4 | x4 | x4 | x4 | x4 | x4 | x4 | x4 |] %100

